X: 1
T: Maire Breathnach's
M: 2/4
L: 1/8
R: polka
K: Gmaj
B>c | dg cB | A2 AB | cd/c/ BA  | G2 B>c |
dg cB | A2 AB | cd/c/ BA | G2 B>c |
dg cB | A2 AB | cd ed  | dc B>c |
dg cB | A2 AB | cd/c/ BA | G2 B>c |
|:dg ga | =f3 e | dd d/c/B/c/ | d2 B>c |
dg ga | =f3 e | d/c/B/c/ dd |1G2 Bc :|2 G2 Bd ||
|: g2 f>d | cA A>c | BG G/A/B/G/ | AD FA |
g2 f>d | cA A>c | BG AD |1 G2 Bd :|2 G2 G/A/B/c/ ||
|: d2 dc | dg g=f | dG/A/ BG | AD FA |
d2 dc | dg ga | =fe dc |1 d2 G/A/B/c/ :|2 d2 d2 ||
